X:1
T:Partition sans titre
C:Compositeur / Arrangeur
L:1/8
M:4/4
I:linebreak $
K:A
V:1 treble nm="Violon" snm="Vln."
V:1
"A" EAAE A2 AB | ceaf ecBA |"D" FBBA"E" B2 Bc | dB"A"cA BA"D"FA |"A" EAAE A2 AB | ceaf ecBA | %6
"D" d2 fd"A" ceaf |1 ec"E"dB"A" cAAF :|2 ec"E"dB"A" cAAB |:"A" Aaag a2 ed | cAAc"E" dB"A"cA | %11
"D" FBBA"E" B2 Bc | dB"A"cA BA"D"FA |"A" Aaag a2 ed | cAAc"E" dB"A"cA |"D" d2 fd"A" ceaf |1 %16
 ec"E"dB"A" cAAB :|2 ec"E"dB"A" cAAF |] %18
